packages/icons/src/svg/sort-19.svg

<svg xmlns="http://www.w3.org/2000/svg" viewBox="0 0 16 16"><path d="M3,16,0,12H2V0H4V12H6ZM13,0H11V1H9V3h2V6H9V8h6V6H13Zm1.18213,12.90332a4.15068,4.15068,0,0,1-.207,1.38672,2.82022,2.82022,0,0,1-.54883.96289,2.1707,2.1707,0,0,1-.78809.5625A2.365,2.365,0,0,1,11.7251,16a2.59488,2.59488,0,0,1-1.07129-.207,2.90236,2.90236,0,0,1-.75586-.47754l.70215-.792a1.69943,1.69943,0,0,0,.4502.2832,1.34965,1.34965,0,0,0,1.05762.02734,1.08937,1.08937,0,0,0,.42285-.30566,1.642,1.642,0,0,0,.30176-.55859,3.07225,3.07225,0,0,0,.13477-.85059,2.46339,2.46339,0,0,1-.68848.46387,1.70106,1.70106,0,0,1-.68848.167,2.20432,2.20432,0,0,1-.70215-.1084,1.56253,1.56253,0,0,1-.5625-.32422,1.47888,1.47888,0,0,1-.373-.54883,2.07685,2.07685,0,0,1-.13477-.7832,1.83326,1.83326,0,0,1,.61523-1.40332,1.95737,1.95737,0,0,1,.65332-.38281,2.33186,2.33186,0,0,1,.78223-.13086,2.376,2.376,0,0,1,.86035.16211,2.0315,2.0315,0,0,1,.74219.50391,2.48749,2.48749,0,0,1,.51758.87793A3.81212,3.81212,0,0,1,14.18213,12.90332ZM13,12a1,1,0,1,0-1,1A1,1,0,0,0,13,12Z"/></svg>

<svg xmlns="http://www.w3.org/2000/svg" viewBox="0 0 16 16">
	<path d="M3 16l-3-4h2V0h2v12h2zM13 0h-2v1H9v2h2v3H9v2h6V6h-2zm1.182 12.903a4.15 4.15 0 0 1-.207 1.387 2.82 2.82 0 0 1-.549.963 2.17 2.17 0 0 1-.788.562 2.365 2.365 0 0 1-.913.185 2.595 2.595 0 0 1-1.071-.207 2.902 2.902 0 0 1-.756-.478l.702-.792a1.7 1.7 0 0 0 .45.284 1.35 1.35 0 0 0 1.058.027 1.09 1.09 0 0 0 .423-.306 1.642 1.642 0 0 0 .302-.558 3.072 3.072 0 0 0 .134-.85 2.463 2.463 0 0 1-.688.463 1.701 1.701 0 0 1-.689.167 2.204 2.204 0 0 1-.702-.108 1.563 1.563 0 0 1-.562-.325 1.479 1.479 0 0 1-.373-.548 2.077 2.077 0 0 1-.135-.784 1.833 1.833 0 0 1 .615-1.403 1.957 1.957 0 0 1 .653-.383 2.332 2.332 0 0 1 .783-.13 2.376 2.376 0 0 1 .86.161 2.031 2.031 0 0 1 .742.504 2.487 2.487 0 0 1 .518.878 3.812 3.812 0 0 1 .193 1.291zM13 12a1 1 0 1 0-1 1 1 1 0 0 0 1-1z"/>
</svg>
